X: 8856
T: Culfadda, The
R: reel
M: 4/4
K: Gmajor
A|BedB AcBA|GBAG EFGE|DB3 DEGA|BGdB A2GA|
BedB AcBA|GBAG EFGE|DB3 DEGA|(3BAG AF G3:|
B|d3B c3A|GABG ABGE|DG3 DG3|cBAG (3EFG AB|
c3e dB3|edef gdBG|DG G2 DGBc|dBAc BG3:|

